X:1
T:Title
%%score { ( 1 2 5 ) | ( 3 4 ) }
L:1/8
M:3/4
K:Eb
V:1 treble nm="Grand Piano"
V:2 treble 
V:5 treble 
V:3 bass 
V:4 bass 
V:1
 z2 z2[Q:1/4=100] z z/ D/ | E2 G2 F>E | D2 G2 F>E | D2 F2 E>D | C4 z z/ D/ | E2 [EG]2 B>A | %6
 [DB]2 [EG]2 c>=B | c2 [FB]2 A>G | G4- G>G |[M:2/4] G>B A>G | F4 | [DF]>[FA] [EG]>[DF] | E4 | %13
 E>G F>E | D>E F>F | F2 z2 | [B,EG]3- [B,EG]/[B,EG]/ | G2 z2 | F4 | [DF]>[FA] [EG]>[DF] | E4 | %21
 E>G F>E | D>E F>F | F>G A>B |[M:3/4] [Ec]4 [Ec]>[Fd] | [Ge]2 d2 c>=B | c2 G2 c>B | A2 [Fc]2 B>A | %28
 G4 G>F | E2 G2 =B,->[B,D] |[M:2/4] C4 |] %31
V:2
 z2 z2 C2 | x6 | x6 | z2 z2 =B,2 | z2 z2 C2- | C2 z2 E2 | x6 | z2 z2 D2 | x6 |[M:2/4] x4 | %10
 z2 B,>F | x4 | z2 C>E | x4 | x4 | z z/ G/ [B,DA]2 | x4 | [B,E]->[B,-E-B] [B,-E-A]>[B,EG] | %18
 z2 B,>F | x4 | z2 C>E | x4 | x4 | z2 F2 |[M:3/4] x6 | x6 | x6 | z2 z2 F2 | x6 | z2 z2 [G,E]2 | %30
[M:2/4] x4 |] %31
V:3
 z2 z2 E,>F, | [G,C]2- [E,G,C]2 [G,C]->[C,G,C] | [F,=B,]2 [E,C]2 [F,A,C]2 | [G,=B,]4 [G,,F,]2 | %4
 z2 z2 E,2 | C,2 =B,,2 [_B,,G,]2 | [B,,F,]2 [C,E,]2 [F,A,D]2 | [E,G,C]2 [D,F,]2 [B,,B,]2 | %8
 [E,B,E]4- [E,B,E]>[E,B,E] |[M:2/4] [B,E]->[G,B,-E-] [F,B,-E-]>[E,B,E] | B,2 z z/ [D,B,]/ | %11
 [B,,B,]>[B,,B,] [B,,B,]>[B,,B,] | [C,G,]3- [C,G,]/[C,G,C]/ | [C,C]->[C,-B,C-] [C,-A,C-]>[C,G,C] | %14
 [A,C]2- [E,A,C]2 | [D,B,]2 z z/[K:treble] B/ | E,2 E,>E, | E,>G, F,>E, | B,2 z z/ [D,B,]/ | %19
 [B,,B,]>[B,,B,] [B,,B,]>[B,,B,] | [C,G,]3- [C,G,]/[C,G,C]/ | [C,C]->[C,-B,C-] [C,-A,C-]>[C,G,C] | %22
 [F,A,C]4 | [E,A,C]2 [D,F,]2 |[M:3/4] [C,G,]4 [C,G,]2 | [C,C]2[K:treble] [G,=B,F]2 [A,CE]2 | %26
 [F,A,D]2 [E,G,C]2 C2- | [F,C]2 [E,A,]2 [D,B,]2 | [E,B,E]4 [G,=B,D]2 | [A,C]2 [G,=B,D]2 z z/ F,/ | %30
[M:2/4] [C,E,G,]4 |] %31
V:4
 z2 z2 C,2 | C,2 z2 D,2 | G,4 z2 | x6 | [C,E,]4 C,->[C,F,] | x6 | x6 | x6 | x6 |[M:2/4] E,2 z2 | %10
 D,4 | x4 | x4 | G,2 z2 | F,2 z2 | z2 B,,2[K:treble] | x4 | x4 | D,4 | x4 | x4 | G,2 z2 | x4 | x4 | %24
[M:3/4] x6 | x2[K:treble] x4 | z2 z2 [=E,G,]2 | x6 | x6 | z2 z2 G,,2 |[M:2/4] x4 |] %31
V:5
 x6 | x6 | x6 | x6 | x6 | G,4 z2 | x6 | x6 | x6 |[M:2/4] x4 | x4 | x4 | x4 | x4 | x4 | x4 | x4 | %17
 x4 | x4 | x4 | x4 | x4 | x4 | x4 |[M:3/4] x6 | x6 | x6 | x6 | x6 | x6 |[M:2/4] x4 |] %31

